ui/StatusQ/src/assets/img/icons/admin.svg

<svg fill="none" height="24" viewBox="0 0 24 24" width="24" xmlns="http://www.w3.org/2000/svg"><g fill="#000"><path clip-rule="evenodd" d="m17 8c0 2.7614-2.2386 5-5 5-2.76142 0-5-2.2386-5-5 0-2.76142 2.23858-5 5-5 2.7614 0 5 2.23858 5 5zm-1.5 0c0 1.933-1.567 3.5-3.5 3.5s-3.5-1.567-3.5-3.5 1.567-3.5 3.5-3.5 3.5 1.567 3.5 3.5z" fill-rule="evenodd"/><path d="m12.1099 17.5007c.4189.0053.7898-.2992.8246-.7168.034-.4077-.2656-.7701-.6746-.7806-.0864-.0022-.1731-.0033-.2601-.0033-3.04048 0-5.76406 1.357-7.59813 3.4984-.23986.28-.20848.6949.05225.9556.3238.3239.85982.2772 1.16232-.0666 1.55771-1.7703 3.84021-2.8874 6.38356-2.8874.0368 0 .0734.0002.1101.0007z"/><path d="m17.9983 13.9425c.2852-.2567.7182-.2567 1.0034 0l2.5 2.25c.3079.2771.3329.7513.0558 1.0592s-.7513.3329-1.0592.0558l-.4138-.3724c-.3218-.2896-.8345-.0613-.8345.3716v2.6933c0 .4142-.3358.75-.75.75s-.75-.3358-.75-.75v-2.6933c0-.4329-.5127-.6612-.8345-.3716l-.4138.3724c-.3079.2771-.7821.2521-1.0592-.0558s-.2521-.7821.0558-1.0592z"/></g></svg>

<svg width="24" height="24" viewBox="0 0 24 24" fill="none" xmlns="http://www.w3.org/2000/svg">
<path fill-rule="evenodd" clip-rule="evenodd" d="M17 8C17 10.7614 14.7614 13 12 13C9.23858 13 7 10.7614 7 8C7 5.23858 9.23858 3 12 3C14.7614 3 17 5.23858 17 8ZM15.5 8C15.5 9.933 13.933 11.5 12 11.5C10.067 11.5 8.5 9.933 8.5 8C8.5 6.067 10.067 4.5 12 4.5C13.933 4.5 15.5 6.067 15.5 8Z" fill="black"/>
<path d="M12.1099 17.5007C12.5288 17.506 12.8997 17.2015 12.9345 16.7839C12.9685 16.3762 12.6689 16.0138 12.2599 16.0033C12.1735 16.0011 12.0868 16 11.9998 16C8.95932 16 6.23574 17.357 4.40167 19.4984C4.16181 19.7784 4.19319 20.1933 4.45392 20.454C4.77772 20.7779 5.31374 20.7312 5.61624 20.3874C7.17395 18.6171 9.45645 17.5 11.9998 17.5C12.0366 17.5 12.0732 17.5002 12.1099 17.5007Z" fill="black"/>
<path d="M17.9983 13.9425C18.2835 13.6858 18.7165 13.6858 19.0017 13.9425L21.5017 16.1925C21.8096 16.4696 21.8346 16.9438 21.5575 17.2517C21.2804 17.5596 20.8062 17.5846 20.4983 17.3075L20.0845 16.9351C19.7627 16.6455 19.25 16.8738 19.25 17.3067V20C19.25 20.4142 18.9142 20.75 18.5 20.75C18.0858 20.75 17.75 20.4142 17.75 20V17.3067C17.75 16.8738 17.2373 16.6455 16.9155 16.9351L16.5017 17.3075C16.1938 17.5846 15.7196 17.5596 15.4425 17.2517C15.1654 16.9438 15.1904 16.4696 15.4983 16.1925L17.9983 13.9425Z" fill="black"/>
</svg>
